X:1
T: Country Dance
P:Kerr's 1st, p.24
R:Reel
Q: 232
K:A
M:4/4
L:1/8
|:e2 ed c2 c2|BA Bc AB cd|e2 ed c2 c2|BA Bc A4:|
|:A2 ce a2 a2|ba gf ed cB|A2 ce a2 a2|ba gf e4:|
A2 AA A2 B2|c2 d2 e2 f2|g2 a2 g2 f2|ef ed c2 d2|
e2 ee e2 f2|d2 e2 c2 d2|e2 dc B2 cB|A2 z2 a2 z2||
